svg/furkot/freepik/charging.svg

<svg viewBox="0 0 512 512" xmlns="http://www.w3.org/2000/svg"><path d="m256.051.015v57.972c109.192 0 198.035 88.858 198.035 198.064s-88.843 198.064-198.035 198.064c-99.366 0-181.875-73.553-195.962-169.078h75.944c13.073 54.176 61.857 94.569 119.989 94.569h28.987v-44.944h82.176v-57.973h-82.176v-41.363h82.176v-57.973h-82.176v-44.929h-28.987c-58.146 0-106.916 40.393-119.989 94.569h-136.033v28.986c0 141.163 114.858 256.036 256.036 256.036 141.164 0 256.008-114.873 256.008-256.036 0-141.135-114.83-255.964-255.993-255.964z"/></svg>

<svg viewBox="0 0 512 512" xmlns="http://www.w3.org/2000/svg"><path d="M 256.051 0.015 L 256.051 57.987 C 365.243 57.987 454.086 146.845 454.086 256.051 C 454.086 365.257 365.243 454.115 256.051 454.115 C 156.685 454.115 74.176 380.562 60.089 285.037 L 136.033 285.037 C 149.106 339.213 197.89 379.606 256.022 379.606 L 285.009 379.606 L 285.009 334.662 L 367.185 334.662 L 367.185 276.689 L 285.009 276.689 L 285.009 235.326 L 367.185 235.326 L 367.185 177.353 L 285.009 177.353 L 285.009 132.424 L 256.022 132.424 C 197.876 132.424 149.106 172.817 136.033 226.993 L 0 226.993 L 0 255.979 C 0 397.142 114.858 512.015 256.036 512.015 C 397.2 512.015 512.044 397.142 512.044 255.979 C 512.044 114.844 397.214 0.015 256.051 0.015 Z"/></svg>
